X: 1
T:Blue-Eyed Lassie -- Reel
M:2/4
L:1/16
R:reel
B:Ryan's Mammoth Collection
N:46
Z:Contributed by Ray Davies,  ray:davies99.freeserve.co.uk
K:D
vDFAF BFAd | DFFA BEEF | DFAF BFA2 | faAc edd2 |
DFAF BFAd | DFFA BEEF | DFAF BFA2 | faAc edd2 :|
|:dffd ceec | ((3Bcd) AF GFED | A,DFA DFAd | fadf e2fg |
abaf gfed | edfd edBd | AdFd EdFd | faeg fdd2 :|
